X:703
T:Eight Men of Moidart
D:Bert Shorthouse
Z:Nigel Gatherer
M:2/4
L:1/8
K:D
A/d/ | f/e/d/c/ dA | F2 DA | F/G/A DA | FE E
A/d/ | f/e/d/c/ dA | F2 DA | F/G/A EA | FD D :|
A/G/ | FD       AD | BD AD | FD    AD | B/A/G/F/ E
A/G/ | FD       AD | BD AD | F/G/A EA | FD D :|
<end>
<start>
